X:1
T:Wallingsford
T:C Major            Asahel Benham, 1790
T:Transcribed from Benham's Federal Harmony, 1793.
T:Philip Doddridge, 1755 Amend. William Enfield, 1772              10 10.11 11.
%%score [ 1 2 3 4 ]
L:1/8
Q:1/4=100
M:4/4
K:C
V:1 treble nm="Tr." snm="Tr."
V:2 treble nm="C." snm="C."
V:3 treble-8 nm="T." snm="T."
V:4 bass nm="B." snm="B."
V:1
"_1. O   praise ________   ye      the  Lord;  pre –pare    a   new   song,  And let __________  all  his saints  in  full   con   –  cert   join;                                                       With\n2. Be  joy            –          ful,      ye saints,  sus–tained  by  his  might,  And let _________ your glad songs  awake  with     each morn;                                                      For" c4 (G4 | %1
 A4) B>c d2 | G6 E2 | A4 B2 cd | e6 e2 | (e3 f g4) | c2 B2 c4 | A4 d4 | (3(def) ec B4- | B6 z2 | %10
 z8 | z8 | %12
 z4 z2"_1. With voi – ces  united  the  anthem  prolong;  And     show forth his ho        –          nors  in   mu       –        –         sic di  – vine.\n2. For  those who obey him are still his delight;   His      hand  with sal – va       –         tion  the  meek ___________will a  – dorn." G2 | %13
 (c3 d) c2 A2 | G4 G2 G2 | e4 e2 g2 | c6 A2 | G4 d2 d2 | (d3 c B4) | B2 d2 (G2 c>d | e3 c) A2 d2 | %21
 c8- | c8 |] %23
V:2
 E4 (E4 | A4) G2 G2 | G6 G2 | F4 G2 cA | G6 G2 | (G>AGF G4) | G2 G2 G4 | A4 A4 | A2 EF G4- | %9
 G6 z2 | z8 | z4 z2 E2 | %12
"_1. voi  –  ces  u  –  ni  – ted  the  anthem  pro–long; _____   And  show  forth  his  ho        –          nors  in   mu       –        –         sic di  – vine.\n2. those who o  –  bey  him  are  still  his de – light; _____    His   hand  with  sal – va        –         tion  the  meek __________  will  a  – dorn." (G3 A) G2 E2 | %13
 C4 C2 C2 | E4 E2 G2 | G8- | G6 A2 | (B2 G2) A2 A2 | (A4 G4) | G2 G2 (G2 AB | c4) B2 G2 | (E8 | %22
 G8) |] %23
V:3
 G4 (c>dcB | c4) c2 B2 | c6 e2 | d4 e2 f2 | g6 G2 | (c4 d4) | d2 d2 e4 | ^c4 d4 | d2 ^c2 d4- | %9
 d6 z2 | %10
 z4 z2"_1. O   praise ________   ye      the  Lord;  pre –pare    a   new   song,  And let __________  all  his saints  in  full   con   –  cert   join;                               With voi – ces  u –\n2. Be  joy            –          ful,      ye saints,  sus–tained  by  his  might,  And let _________ your glad songs  awake  with     each morn;                             For those who  o –" G2 | %11
 (c3 d) c2 A2 | %12
"_1. – ni  – ted  the anthem   pro–long;  the anthem prolong, And   show  forth  his  ho        –          nors  in  mu       –        –        sic di  – vine.\n2. – bey  him are  still  his de – light;   are still  his  delight, His   hand  with  sal – va        –         tion  the  meek __________  will  a  – dorn." G4 G2 G2 | %13
 e4 e2 g2 | c6 c2 | c4 A2 G2 | c6 c>d | (e3 c) A2 A2 | (d>edc d4) | d2 d2 (e>fef | g4) c2 B2 | %21
 c8- | c8 |] %23
V:4
 C,4 (C,4 | F,4) G,2 E,2 | C,6 C,2 | (D,3 F,) E,2 G,2 | [C,C]6 [E,G,]2 | ((C,4 [G,,G,]4)) | %6
 [G,,G,]2 [G,,G,]2 [C,C]4 | F,4 D,4 | D,2 A,2 G,4- | %9
 G,6"_1. With voi – ces  u  –  ni  –  ted  the\n2. For  those who o  –  bey   him are" E,2 | %10
 (G,3 A,) G,2 E,2 | C,4 C,2 C,2 | %12
"_1. an – them pro – long, ___________________________  And   show  forth  his  ho        –          nors  in  mu       –        –         sic  di  – vine.\n2. still     his  de – light, ____________________________  His    hand   with  sal – va       –         tion  the  meek __________  will  a  – dorn." E,4 E,2 G,2 | %13
 C,8- | C,8- | C,8- | C,6 F,2 | E,4 D,2 D,2 | ((D,4 [G,,G,]4)) | [G,,G,]2 [G,,G,]2 (E,4 | %20
 C4) [F,,F,]2 [G,,G,]2 | C,8- | C,8 |] %23

